svgs/thin/floppy-disk-pen.svg

<svg xmlns="http://www.w3.org/2000/svg" viewBox="0 0 576 512"><!--! Font Awesome Pro 6.3.0 by @fontawesome - https://fontawesome.com License - https://fontawesome.com/license (Commercial License) Copyright 2023 Fonticons, Inc. --><path d="M224 240c-48.53 0-88 39.47-88 88S175.5 416 224 416s88-39.47 88-88S272.5 240 224 240zM224 400c-39.69 0-72-32.3-72-72S184.3 256 224 256s72 32.3 72 72S263.7 400 224 400zM253.3 464H64c-26.47 0-48-21.53-48-48V96c0-26.47 21.53-48 48-48v104C64 174.1 81.94 192 104 192h176C302.1 192 320 174.1 320 152V56.09c2.619 1.74 5.074 3.738 7.312 5.977l90.63 90.63C427 161.8 432 173.8 432 186.6v44.8c0 4.422 3.594 8 8 8s8-3.578 8-8V186.6c0-17.09-6.656-33.16-18.75-45.25l-90.63-90.63C326.7 38.83 310.3 32 293.4 32H64C28.72 32 0 60.7 0 96v320c0 35.3 28.72 64 64 64h189.3c4.406 0 8-3.578 8-8S257.7 464 253.3 464zM80 48h213.4C296.1 48 300.5 48.52 304 49.32V152c0 13.23-10.78 24-24 24h-176C90.78 176 80 165.2 80 152V48zM565.5 255.7l-21.1-21.11c-7.029-7.029-16.24-10.54-25.46-10.54s-18.43 3.51-25.45 10.54l-186.1 186.1c-2.514 2.512-4.227 5.715-4.924 9.203l-14.28 71.41C287 506.9 291.5 512 296.1 512c.5898 0 1.189-.0645 1.797-.1855l71.42-14.29c3.482-.6992 6.682-2.406 9.195-4.922l186.1-186C579.5 292.5 579.5 269.7 565.5 255.7zM367.1 481.8l-61.1 12.34l12.74-62.26l130.1-130.1l49.31 49.31L367.1 481.8zM554.1 295.3l-43.85 43.73l-49.33-49.33l43.79-43.79c3.777-3.777 8.797-5.857 14.14-5.857s10.36 2.08 14.14 5.857l21.1 21.11C557.9 270.7 560 275.8 560 281.1S557.9 291.5 554.1 295.3z"/></svg>

<svg xmlns="http://www.w3.org/2000/svg" viewBox="0 0 576 512"><!-- Font Awesome Pro 6.0.0-alpha2 by @fontawesome - https://fontawesome.com License - https://fontawesome.com/license (Commercial License) --><path d="M224 240C175.469 240 136 279.469 136 328S175.469 416 224 416S312 376.531 312 328S272.531 240 224 240ZM224 400C184.312 400 152 367.703 152 328S184.312 256 224 256S296 288.297 296 328S263.688 400 224 400ZM253.25 464H64C37.531 464 16 442.469 16 416V96C16 69.531 37.531 48 64 48V152C64 174.062 81.938 192 104 192H280C302.062 192 320 174.062 320 152V56.086C322.619 57.826 325.074 59.824 327.312 62.062L417.937 152.687C427 161.75 432 173.812 432 186.625V231.422C432 235.844 435.594 239.422 440 239.422S448 235.844 448 231.422V186.625C448 169.531 441.344 153.469 429.25 141.375L338.625 50.75C326.719 38.828 310.219 32 293.375 32H64C28.719 32 0 60.703 0 96V416C0 451.297 28.719 480 64 480H253.25C257.656 480 261.25 476.422 261.25 472S257.656 464 253.25 464ZM80 48H293.375C296.971 48 300.518 48.521 304 49.322V152C304 165.234 293.219 176 280 176H104C90.781 176 80 165.234 80 152V48ZM565.457 255.656L544.355 234.551C537.326 227.521 528.113 224.006 518.9 224.006S500.475 227.521 493.447 234.551L307.385 420.617C304.871 423.129 303.158 426.332 302.461 429.82L288.18 501.234C287.043 506.916 291.465 512 296.973 512C297.562 512 298.162 511.941 298.77 511.82L370.189 497.535C373.672 496.836 376.871 495.129 379.385 492.613L565.453 306.566C579.514 292.508 579.516 269.715 565.457 255.656ZM367.051 481.846L305.955 494.186L318.699 431.93L449.656 300.969L498.967 350.279L367.051 481.846ZM554.141 295.252L510.295 338.982L460.969 289.656L504.762 245.863C508.539 242.086 513.559 240.006 518.9 240.006S529.264 242.086 533.041 245.863L554.143 266.969C557.92 270.746 560 275.768 560 281.109S557.918 291.473 554.141 295.252Z"/></svg>
